X: 072
T: Paddy O Raffity
%R: jig
Z: 2014 John Chambers <jc:trillian.mit.edu>
B: Thompson "Twenty four Country Dances for the Year 1805" p.7 #2
F: http://folkopedia.efdss.org/images/2/2a/Thompson_24_1805.PDF 2014-8-13
M: 6/8
L: 1/8
K: C
|:\
(ce).G GEG | Gfe dcB | (ce).G GEG | cdc cAG |\
(ce).G GEG | Gfe fga | gfe fed | cdc cAG :|
|:\
Gee Gdd | Gee Gdd | Gee Gdd | cdc cAG |\
Gee Gdd | Gee Gdd | ceg c'ge | cdc cAG :|
% - - - - - - - - - - - - - - - - - - - - - - - - -
%%begintext align
%% Two Cu: change sides, back again, right
%% hands across, half round back again, lead
%% down the middle up again, right & left
%% at top.
%%endtext
% - - - - - - - - - - - - - - - - - - - - - - - - -
